X:1
T:A Song of Heaven and Homeland
T:Ira David Sankey
T:A Song of Heaven and Homeland
T:Public Domain
T:Public Domain
T:Public Domain
C:Ira David Sankey
Z:Public Domain
%%score 1 ( 2 3 )
L:1/8
M:3/4
K:F
V:1 treble 
V:2 bass 
V:3 bass 
V:1
 [A,C]2 | [A,C]3 [A,D] [A,E][A,F] | [A,A]2 [A,F]2 [CF]2 | [B,F]3 [DB] [DF][_DG] | [CA]4 [CA]2 | %5
w: 1.~Some-|times I hear strange|mu- sic, Like|none e’er heard be-|fore, Come|
w: 2.~Now|soft, and low, and|rest- ful, It|floods my soul with|peace, As|
w: 3.~This|mu- sic haunts me|ev- er, Like|some- thing heard in|dreams— It|
 [EB]3 [EG] [DF][EG] | [FA]2 [CF]2 [CF]2 | [=B,F]3 [B,F] [B,E][B,F] | [B,G]4 [B,C]2 | %9
w: float- ing soft- ly|earth- ward As|thro’ Heav’n’s o- pen|door: It|
w: if God’s ben- e-|dict- ion Bade|all earth’s trou- bles|cease. Then|
w: seems to catch the|ca- dence Of|heav’n- ly winds and|streams. My|
 [A,C]3 [A,D] [A,E][A,F] | [A,A]2 [A,F]2 [_EF]2 | [DF]3 [DB] [DF][_DG] | [CA]4 [Fc]2 | %13
w: seems like an- gel|voic- es, In|strains of joy and|love, That|
w: grand- er than the|voic- es, Of|wind, and wave, and|sea— It|
w: heart is filled with|rap- ture, To|think, some day to|come, I’ll|
 [Fc]3 [Fc] [Fd][Fc] | [Fc]2 [A,F]2 [DB]2 | [CA]3 [CF] [B,F][B,G] | [A,F]4 ||"^Refrain" [CA]2 | %18
w: swell the might- y|chor- us A-|round the throne a-|bove.||
w: fills the dome of|Heav- en With|glor- ious har- mo-|ny.|O|
w: sing it with the|an- gels— The|song of Heav’n and|home.||
 [^CA]3 [CE] [DF][EG] | [EG]2 [DF]2 [Cc]2 | [Ec]3 [EG] [FA][CB] | [CA]4 [A,C]2 | %22
w: ||||
w: sweet, ce- les- tial|mu- sic, Heard|from a land a-|far— The|
w: ||||
 [A,C]3 [A,D] [A,E][A,F] | [CA]2 [Fc]2 [Fd]2 | [Fc]3 [CF] [DF][EG] | [CF]4 |] %26
w: ||||
w: song of Heav’n and|Home- land, Thro’|doors God leaves a-|jar!|
w: ||||
V:2
 [F,,F,]2 | [F,,F,]3 [F,,C,] [F,,C,][F,,C,] | [F,,C,]2 [F,,F,]2 [A,,_E,]2 | %3
 [B,,D,]3 [B,,F,] [B,,F,][B,,E,] | [F,,F,]4 F,2 | [C,G,]3 [C,B,] [C,A,][C,C] | %6
 [F,C]2 [F,A,]2 [A,,F,]2 | [G,,D,]3 [G,,A,] [G,,G,][G,,F,] | [C,E,]4 [C,E,]2 | %9
 [F,,F,]3 [F,,C,] [F,,C,][F,,C,] | [F,,C,]2 [F,,F,]2 [A,,F,]2 | [B,,F,]3 [B,,F,] [B,,F,][B,,E,] | %12
 [F,,F,]4 [F,A,]2 | [F,A,]3 [F,A,] [F,B,][F,A,] | [F,A,]2 [D,F,]2 [B,,F,]2 | %15
 [C,F,]3 [C,A,] [C,D,][C,E,] | [F,,F,]4 || [F,,F,]2 | [A,,E,]3 [A,,A,] [A,,A,][A,,A,] | %19
 [D,A,]2 [D,A,]2 [F,A,]2 | [C,G,]3 [C,B,] [C,A,][C,G,] | [F,,F,]4 [F,,F,]2 | %22
 [F,,F,]3 [F,,C,] [F,,C,][F,,C,] | [F,,F,]2 [A,,F,]2 [=B,,^G,]2 | [C,A,]3 [C,A,] [C,B,][C,B,] | %25
 [F,,A,]4 |] %26
V:3
 x2 | x6 | x6 | x6 | x4 F,2 | x6 | x6 | x6 | x6 | x6 | x6 | x6 | x6 | x6 | x6 | x6 | x4 || x2 | %18
 x6 | x6 | x6 | x6 | x6 | x6 | x6 | x4 |] %26

